SVG_Azure_Grouped/Storage/Storage Account File Share.svg

<?xml version="1.0" encoding="UTF-8" standalone="no"?>
<!-- Generated by Microsoft Visio, SVG Export Storage Account File Share.svg Page-1 -->

<svg
   xmlns:dc="http://purl.org/dc/elements/1.1/"
   xmlns:cc="http://creativecommons.org/ns#"
   xmlns:rdf="http://www.w3.org/1999/02/22-rdf-syntax-ns#"
   xmlns:svg="http://www.w3.org/2000/svg"
   xmlns="http://www.w3.org/2000/svg"
   xmlns:sodipodi="http://sodipodi.sourceforge.net/DTD/sodipodi-0.dtd"
   xmlns:inkscape="http://www.inkscape.org/namespaces/inkscape"
   width="0.78739679in"
   height="0.78740036in"
   viewBox="0 0 56.692477 56.693137"
   xml:space="preserve"
   class="st6"
   version="1.1"
   id="svg63"
   sodipodi:docname="Storage Account File Share.svg"
   style="font-size:12px;overflow:visible;color-interpolation-filters:sRGB;fill:none;fill-rule:evenodd;stroke-linecap:square;stroke-miterlimit:3"
   inkscape:version="0.92.5 (2060ec1f9f, 2020-04-08)"><metadata
   id="metadata67"><rdf:RDF><cc:Work
       rdf:about=""><dc:format>image/svg+xml</dc:format><dc:type
         rdf:resource="http://purl.org/dc/dcmitype/StillImage" /></cc:Work></rdf:RDF></metadata><sodipodi:namedview
   pagecolor="#ffffff"
   bordercolor="#666666"
   borderopacity="1"
   objecttolerance="10"
   gridtolerance="10"
   guidetolerance="10"
   inkscape:pageopacity="0"
   inkscape:pageshadow="2"
   inkscape:window-width="640"
   inkscape:window-height="480"
   id="namedview65"
   showgrid="false"
   inkscape:zoom="1.4193119"
   inkscape:cx="37.795128"
   inkscape:cy="37.784163"
   inkscape:window-x="0"
   inkscape:window-y="0"
   inkscape:window-maximized="0"
   inkscape:current-layer="svg63" />
	<style
   type="text/css"
   id="style2">
	<![CDATA[
		.st1 {fill:#005ba1;stroke:none;stroke-linecap:butt;stroke-width:34}
		.st2 {fill:#50e5ff;stroke:none;stroke-linecap:butt;stroke-width:34}
		.st3 {fill:#0078d4;stroke:none;stroke-linecap:butt;stroke-width:34}
		.st4 {fill:#ffffff;stroke:none;stroke-linecap:butt;stroke-width:34}
		.st5 {fill:url(#grad0-18);stroke:none;stroke-linecap:butt;stroke-width:34}
		.st6 {fill:none;fill-rule:evenodd;font-size:12px;overflow:visible;stroke-linecap:square;stroke-miterlimit:3}
	]]>
	</style>

	<defs
   id="Patterns_And_Gradients">
		<linearGradient
   id="grad0-18"
   x1="-0.0022827725"
   y1="112.34184"
   x2="33.920177"
   y2="112.34184"
   gradientTransform="scale(1.1727533,0.85269425)"
   gradientUnits="userSpaceOnUse">
			<stop
   offset="0"
   stop-color="#32d4f5"
   stop-opacity="1"
   id="stop4" />
			<stop
   offset="0.23"
   stop-color="#31d0f1"
   stop-opacity="1"
   id="stop6" />
			<stop
   offset="0.46"
   stop-color="#2cc3e6"
   stop-opacity="1"
   id="stop8" />
			<stop
   offset="0.7"
   stop-color="#25afd4"
   stop-opacity="1"
   id="stop10" />
			<stop
   offset="0.94"
   stop-color="#1c92ba"
   stop-opacity="1"
   id="stop12" />
			<stop
   offset="1"
   stop-color="#198ab3"
   stop-opacity="1"
   id="stop14" />
		</linearGradient>
	</defs>
	<g
   id="g61"
   transform="translate(-34.000441,-33.999639)">
		<title
   id="title18">Page-1</title>
		<g
   id="group20154-1"
   transform="translate(34,-34.0157)">
			<title
   id="title20">Storage Account File Share.20154</title>
			<g
   id="group20155-2">
				<title
   id="title22">Sheet.20155</title>
				<g
   id="shape20156-3"
   transform="translate(10.2362,-7.33044)">
					<title
   id="title24">Sheet.20156</title>
					<path
   d="m 44.19,87.65 h -2.87 a 13.1024,13.0878 -180 0 0 -1.73,0 2.14173,2.13936 0 0 1 -1.86,-3.15 l 1.23,-2.2 a 5.76378,5.75738 -180 0 0 -1.61,-0.91 l -2.92,5.22 a 2.20472,2.20228 0 0 1 -1.89,1.1 h -2.62 a 2.07874,2.07643 -180 0 0 -1.01,0.25 l -4.94,3.15 a 0.787402,0.786528 0 0 1 -0.503937,0 H 6.36 A 0.913386,0.912372 -180 0 0 5.509606,92.11676 L 5.51,107.28 0,108.98 l 0.41,1.76 5.1,-0.76 v 9.13 a 0.913386,0.912372 -180 0 0 0.913386,0.91237 L 35.94,120.02 l 3.62,4.69 1.54,-0.98 -2.14,-3.71 h 5.29 a 0.913386,0.912372 -180 0 0 0.944882,-0.91237 L 45.2,88.59 a 0.944882,0.943833 -180 0 0 -1.00787,-0.943833 z"
   class="st1"
   id="path26"
   inkscape:connector-curvature="0"
   style="fill:#005ba1;stroke:none;stroke-width:34;stroke-linecap:butt" />
				</g>
				<g
   id="shape20157-5"
   transform="translate(46.5827,-49.8344)">
					<title
   id="title29">Sheet.20157</title>
					<ellipse
   cx="3.4330699"
   cy="121.279"
   rx="3.4330699"
   ry="3.42926"
   class="st2"
   id="ellipse31"
   style="fill:#50e5ff;stroke:none;stroke-width:34;stroke-linecap:butt" />
				</g>
				<g
   id="shape20158-7"
   transform="translate(47.748)">
					<title
   id="title34">Sheet.20158</title>
					<ellipse
   cx="4.4724398"
   cy="120.241"
   rx="4.4724398"
   ry="4.4674802"
   class="st2"
   id="ellipse36"
   style="fill:#50e5ff;stroke:none;stroke-width:34;stroke-linecap:butt" />
				</g>
				<g
   id="shape20159-9"
   transform="translate(0,-15.1013)">
					<title
   id="title39">Sheet.20159</title>
					<ellipse
   cx="5.5748"
   cy="119.14"
   rx="5.5748"
   ry="5.5686202"
   class="st2"
   id="ellipse41"
   style="fill:#50e5ff;stroke:none;stroke-width:34;stroke-linecap:butt" />
				</g>
				<g
   id="shape20160-11"
   transform="translate(21.6063,-36.8095)">
					<title
   id="title44">Sheet.20160</title>
					<path
   d="M 26.17,119.8 4.41,116.65 H 3.97 a 3.14961,3.14611 -180 0 0 -3.15,2.74 L 0,124.71 h 28.79 v -1.29 a 3.14961,3.14611 -180 0 0 -2.62,-3.62 z"
   class="st3"
   id="path46"
   inkscape:connector-curvature="0"
   style="fill:#0078d4;stroke:none;stroke-width:34;stroke-linecap:butt" />
				</g>
				<g
   id="shape20161-13"
   transform="translate(22.9921,-36.8095)">
					<title
   id="title49">Sheet.20161</title>
					<path
   d="M 24.57,121.15 2.83,118.01 H 2.55 a 1.82677,1.82474 -180 0 0 -1.79,1.57 L 0,124.71 h 25.89 l 0.22,-1.48 a 1.82677,1.82474 -180 0 0 -1.54,-2.08 z"
   class="st4"
   id="path51"
   inkscape:connector-curvature="0"
   style="fill:#ffffff;stroke:none;stroke-width:34;stroke-linecap:butt" />
				</g>
				<g
   id="shape20162-15"
   transform="translate(15.748,-12.0181)">
					<title
   id="title54">Sheet.20162</title>
					<path
   d="m 0.82,95.8 h 19.05 a 1.03937,1.03822 0 0 1 0.67,0.28 l 3.15,3.15 a 0.913386,0.912372 -180 0 0 0.661417,0.28315 L 38.83,99.51 a 0.944882,0.943833 0 0 1 0.944882,0.91237 L 39.78,123.8 a 0.944882,0.943833 0 0 1 -0.944882,0.91237 L 1.04,124.71 A 0.913386,0.912372 0 0 1 6.3e-4,123.79763 L 0,96.8 a 0.944882,0.943833 0 0 1 0.818898,-1.00676 z"
   class="st5"
   id="path56"
   inkscape:connector-curvature="0"
   style="fill:url(#grad0-18);stroke:none;stroke-width:34;stroke-linecap:butt" />
				</g>
			</g>
		</g>
	</g>
</svg>

<?xml version="1.0" encoding="UTF-8" standalone="no"?>
<!DOCTYPE svg PUBLIC "-//W3C//DTD SVG 1.1//EN" "http://www.w3.org/Graphics/SVG/1.1/DTD/svg11.dtd">
<!-- Generated by Microsoft Visio, SVG Export Storage Account File Share.svg Page-1 -->
<svg xmlns="http://www.w3.org/2000/svg" xmlns:xlink="http://www.w3.org/1999/xlink" xmlns:ev="http://www.w3.org/2001/xml-events"
		width="1.73185in" height="1.73206in" viewBox="0 0 124.693 124.709" xml:space="preserve" color-interpolation-filters="sRGB"
		class="st6">
	<style type="text/css">
	<![CDATA[
		.st1 {fill:#005ba1;stroke:none;stroke-linecap:butt;stroke-width:34}
		.st2 {fill:#50e5ff;stroke:none;stroke-linecap:butt;stroke-width:34}
		.st3 {fill:#0078d4;stroke:none;stroke-linecap:butt;stroke-width:34}
		.st4 {fill:#ffffff;stroke:none;stroke-linecap:butt;stroke-width:34}
		.st5 {fill:url(#grad0-18);stroke:none;stroke-linecap:butt;stroke-width:34}
		.st6 {fill:none;fill-rule:evenodd;font-size:12px;overflow:visible;stroke-linecap:square;stroke-miterlimit:3}
	]]>
	</style>

	<defs id="Patterns_And_Gradients">
		<linearGradient id="grad0-18" x1="0" y1="0" x2="1" y2="0" gradientTransform="rotate(88.955156399999 0.5 0.5)">
			<stop offset="0" stop-color="#32d4f5" stop-opacity="1"/>
			<stop offset="0.23" stop-color="#31d0f1" stop-opacity="1"/>
			<stop offset="0.46" stop-color="#2cc3e6" stop-opacity="1"/>
			<stop offset="0.7" stop-color="#25afd4" stop-opacity="1"/>
			<stop offset="0.94" stop-color="#1c92ba" stop-opacity="1"/>
			<stop offset="1" stop-color="#198ab3" stop-opacity="1"/>
		</linearGradient>
	</defs>
	<g>
		<title>Page-1</title>
		<g id="group19699-1" transform="translate(34,-34.0157)">
			<title>Storage Account File Share.19699</title>
			<g id="group19700-2">
				<title>Sheet.19700</title>
				<g id="shape19701-3" transform="translate(10.2362,-7.33044)">
					<title>Sheet.19701</title>
					<path d="M44.19 87.65 L41.32 87.65 A13.1024 13.0878 -180 0 0 39.59 87.65 A2.14173 2.13936 0 0 1 37.73 84.5 L38.96
								 82.3 A5.76378 5.75738 -180 0 0 37.35 81.39 L34.43 86.61 A2.20472 2.20228 0 0 1 32.54 87.71 L29.92
								 87.71 A2.07874 2.07643 -180 0 0 28.91 87.96 L23.97 91.11 a0.787402 0.786528 0 0 1 -0.503937 9.9476E-14
								 L6.36 91.11 a0.913386 0.912372 -180 0 0 -0.850394 1.00676 L5.51 107.28 L0 108.98 L0.41 110.74 L5.51
								 109.98 L5.51 119.11 a0.913386 0.912372 -180 0 0 0.913386 0.912372 L35.94 120.02 L39.56 124.71 L41.1
								 123.73 L38.96 120.02 L44.25 120.02 a0.913386 0.912372 -180 0 0 0.944882 -0.912372 L45.2 88.59 a0.944882
								 0.943833 -180 0 0 -1.00787 -0.943833 Z" class="st1"/>
				</g>
				<g id="shape19702-5" transform="translate(46.5827,-49.8344)">
					<title>Sheet.19702</title>
					<ellipse cx="3.43307" cy="121.279" rx="3.43307" ry="3.42926" class="st2"/>
				</g>
				<g id="shape19703-7" transform="translate(47.748,-5.68434E-14)">
					<title>Sheet.19703</title>
					<ellipse cx="4.47244" cy="120.241" rx="4.47244" ry="4.46748" class="st2"/>
				</g>
				<g id="shape19704-9" transform="translate(-1.1291E-13,-15.1013)">
					<title>Sheet.19704</title>
					<ellipse cx="5.5748" cy="119.14" rx="5.5748" ry="5.56862" class="st2"/>
				</g>
				<g id="shape19705-11" transform="translate(21.6063,-36.8095)">
					<title>Sheet.19705</title>
					<path d="M26.17 119.8 L4.41 116.65 L3.97 116.65 A3.14961 3.14611 -180 0 0 0.82 119.39 L0 124.71 L28.79 124.71
								 L28.79 123.42 A3.14961 3.14611 -180 0 0 26.17 119.8 Z" class="st3"/>
				</g>
				<g id="shape19706-13" transform="translate(22.9921,-36.8095)">
					<title>Sheet.19706</title>
					<path d="M24.57 121.15 L2.83 118.01 L2.55 118.01 A1.82677 1.82474 -180 0 0 0.76 119.58 L0 124.71 L25.89 124.71
								 L26.11 123.23 A1.82677 1.82474 -180 0 0 24.57 121.15 Z" class="st4"/>
				</g>
				<g id="shape19707-15" transform="translate(15.748,-12.0181)">
					<title>Sheet.19707</title>
					<path d="M0.82 95.8 L19.87 95.8 A1.03937 1.03822 0 0 1 20.54 96.08 L23.69 99.23 a0.913386 0.912372 -180 0 0 0.661417
								 0.28315 L38.83 99.51 a0.944882 0.943833 0 0 1 0.944882 0.912372 L39.78 123.8 a0.944882 0.943833
								 0 0 1 -0.944882 0.912372 L1.04 124.71 a0.913386 0.912372 0 0 1 -1.03937 -0.912372 L0 96.8 a0.944882
								 0.943833 0 0 1 0.818898 -1.00676 Z" class="st5"/>
				</g>
			</g>
		</g>
	</g>
</svg>
